assets/shared/lut/warm_film.cube
TITLE "Kelvoy Warm Film"
LUT_3D_SIZE 2
DOMAIN_MIN 0.0 0.0 0.0
DOMAIN_MAX 1.0 1.0 1.0
0.010 0.005 0.000
1.000 0.005 0.000
0.010 1.000 0.000
1.000 1.000 0.000
0.010 0.005 0.985
1.000 0.005 0.985
0.010 1.000 0.985
1.000 1.000 1.000
